X:23005
T:Wi' a Hundred Pipers
R:Jig
C:Trad.
O:Scotland
M:6/8
Q:1/8=240
K:A
A/2B/2|\
"A"c2E EFE|"D"F2A A2f|"A"e2c cBA|"E7"c2B BAB|
"A"c2E EFE|"D"F2A A2f|"A"e2c "E7"BcB|"A"(A3 A2)||
c/2d/2|\
"A"e2e ece|"D"f2a a2f|"A"e2c cBA|"E7"c2B B2 c/d/|
"A"efe ece|"D"f2a a2f|"A"e2c "E7"BcB|"A"(A3 A2)|]

